X:698
T: "Die Braut im Kloster"
N: Z1379
O: Europa, Mitteleuropa, Deutschland
R: Erzaehlung, Romanze
M: 6/8
L: 1/16
K: G
A2 | A2G2A2A2G2A2 | _Bcd2cBA4
AG | A3_BcAB3AGB | A2G2F2G4
_B2 | A3GAG=F3GA2 | G2=F2E2F4
AG | A3_BcAB3AGB | A2G2F2G4

@@@ Tune index: 10456
